packages/gestalt-icons-android/vr-theme/ic_vr_thumbs-down_gestalt.svg

<svg width="24" height="24" viewBox="0 0 24 24" fill="none" xmlns="http://www.w3.org/2000/svg">
<path fill-rule="evenodd" clip-rule="evenodd" d="M9 22.5C9 23.3284 9.67157 24 10.5 24H11.8377C13.5428 24 15.1401 22.903 15.5539 21.1476C15.7788 20.1939 16 19.0114 16 18C16 17.6778 15.9777 17.34 15.9404 17H18.5C20.433 17 22 15.433 22 13.5C22 13.1598 21.9512 12.83 21.86 12.5177C22.2626 11.9478 22.5 11.2512 22.5 10.5C22.5 9.74882 22.2626 9.05221 21.86 8.48223C21.9512 8.17003 22 7.84023 22 7.5C22 6.52905 21.6039 5.65042 20.967 5.01735C20.7319 3.31274 19.2692 2 17.5 2H12.3392C11.3615 2 10.3881 2.13035 9.44489 2.3876L6.52887 3.18287C5.75712 3.39335 4.96076 3.5 4.16082 3.5H4C2.89543 3.5 2 4.39543 2 5.5V11.2457C2 12.1387 2.59195 12.9234 3.45056 13.1687L5.54311 13.7666C5.76376 13.8297 5.95602 13.9667 6.08762 14.1547L9 18.3152V22.5ZM11 22V18.3152C11 17.9049 10.8738 17.5045 10.6385 17.1683L7.72608 13.0078C7.33128 12.4438 6.75451 12.0327 6.09255 11.8436L4 11.2457V5.5H4.16082C5.13852 5.5 6.11186 5.36965 7.05511 5.1124L9.97112 4.31713C10.7429 4.10665 11.5392 4 12.3392 4H17.5C18.3284 4 18.9999 4.67151 19 5.49989L19 5.99939L19.3994 6.29938C19.766 6.57474 20 7.0099 20 7.5C20 7.75637 19.9365 7.99495 19.8252 8.2038L19.4646 8.88046L20.0245 9.40433C20.3184 9.67937 20.5 10.0677 20.5 10.5C20.5 10.9323 20.3184 11.3206 20.0245 11.5957L19.4646 12.1195L19.8252 12.7962C19.9365 13.005 20 13.2436 20 13.5C20 14.3284 19.3284 15 18.5 15H13.5693L13.7944 16.1864C13.9188 16.8425 14 17.478 14 18C14 18.7728 13.8233 19.7724 13.6073 20.6887C13.4285 21.4471 12.7152 22 11.8377 22H11Z" fill="black"/>
</svg>

<svg xmlns="http://www.w3.org/2000/svg" width="24" height="24"><path d="M9 22.5c0 .83.67 1.5 1.5 1.5h1.34c1.7 0 3.3-1.1 3.71-2.85.23-.96.45-2.14.45-3.15q0-.48-.06-1h2.56a3.5 3.5 0 0 0 3.36-4.48 3.5 3.5 0 0 0 0-4.04 3.5 3.5 0 0 0-.9-3.46A3.5 3.5 0 0 0 17.5 2h-5.16a11 11 0 0 0-2.9.39l-2.91.8a9 9 0 0 1-2.37.31H4a2 2 0 0 0-2 2v5.75a2 2 0 0 0 1.45 1.92l2.1.6a1 1 0 0 1 .54.38L9 18.32zm2-.5v-3.68a2 2 0 0 0-.36-1.15L7.73 13a3 3 0 0 0-1.64-1.17L4 11.24V5.5h.16a11 11 0 0 0 2.9-.39l2.91-.8A9 9 0 0 1 12.34 4h5.16c.83 0 1.5.67 1.5 1.5V6l.4.3a1.5 1.5 0 0 1 .43 1.9l-.37.68.56.52a1.5 1.5 0 0 1 0 2.2l-.56.52.37.68q.16.3.17.7c0 .83-.67 1.5-1.5 1.5h-4.93l.22 1.19c.13.65.21 1.29.21 1.81 0 .77-.18 1.77-.4 2.69-.17.76-.88 1.31-1.76 1.31z"/></svg>
